!!!COM: Ce/cile Chaminade
!!!CNT: Francais
!!!TXO: Francais
!!!OTL: "L'ete/"
!!!LYR: Guinand, Edouard
!!!ENC: Amanda Harris
!!!YOR: Album of Songs, Volume 1
!!!YOR: Da Capo Press
!!!ODT: 1893/
!!NB: Vocal melody and text encoded
**kern	**silbe
*clefG2	*
*k[f#]	*
*M6/8	*
*MM[88]	*
=11	=11
*k[b-e-]	*
{16g	{Ah!
16a	|
16b-	|
16a	|
16g	|
16b-	|
8a	|
4d	|
=12	=12
16e	chan-
16f	|
8g	-tez,
8a	chan-
4.b-}	-tez,}
=13	=13
{8dd	{Fol-
8dd	-le
8dd	fau-
16cc	-vet-
16a	|
4cc	-te,
=14	=14
8b-	Gaie
8b-	a-
8b-	-lou-
16a	-et-
16f	|
4a}	-te,}
=15	=15
{8g	{Joy-
4dd	-eux
8g	pin-
4dd	-son,
=16	=16
8g	Joy-
8dd	-eux
8g	pin-
8dd	-son,
8r	.
8dd	chan-
=17	=17
16ff	-tez,
16een	|
8dd	|
8cc#	ai-
4.dd}	-mez!}
=18	=18
{16f	{Par-
16g	|
16a	-fum
16b-	|
16ccn	des
16dd	|
8ee-	ro-
4e-	-ses,
=19	=19
16d	Frai^-
16en	|
16f#	-ches
16g	|
16a	e/-
16b-	|
8a	-clo-
4en	-ses,
=20	=20
8d	Ren-
4a	-dez
8d	nos
4a	bois,
=21	=21
8r	.
8a	nos
8d	bois
8a	plus
8d	em-
8a	-bau-
=22	=22
[2.dd	-me/s!
=23	=23
8dd]}	|}
8r	.
8r	.
4r	.
8r	.
=24	=24
{16e-	{Ah!
16f	|
16g	|
16a	|
16b-	|
16cc	|
8dd	|
4d	|
=25	=25
16e-	Ah!
16f	|
16g	|
16a	|
16b-	|
16cc	|
8dd	|
4d	|
=26	=26
16e-	Ah!
16f	|
16g	|
16a	|
16b-	|
16cc	|
8dd	|
4d	|
=27	=27
16e-	Ah!
16f	|
16g	|
16a	|
16b-	|
16cc	|
4.dd}	|}
=28	=28
{8dd	{Ah!
[4gg	|
8gg]	|
8ee-	|
8cc	chan-
=29	=29
8.b-	-tez,
16cc	|
8a	ai-
4g}	-mez.}
8r	.
=33	=33
4r	.
8r	.
{8b-	{So-
8dd	-leil
8ff	qui
=34	=34
4.a	do-
4.g	|
=35	=35
4.f}	-re}
{8b-	{Les
8dd	sy-
8gg	-co-
=36	=36
4.a	-mo-
4.g	|
=37	=37
4f}	-res}
8r	.
{8f	{Rem-
8g	-plis
8b-	d'es-
=38	=38
4b-	-sains
8g	|
4b-	tout
8g	brui-
=39	=39
4b-}	-sants,}
8r	.
4r	.
8r	.
=41	=41
4r	.
8r	.
{8b-	{Ver-
8dd	-se
8ff	la
=42	=42
4.a	joi-
4.g	|
=43	=43
4.f}	-e,}
{8b-	{Que
8dd	tout
8gg	se
=44	=44
4.a	noi-
4.g	|
=45	=45
4.f#}	-e}
{8f#	{Dans
8a	tes
8dd	ray-
=46	=46
4dd	-ons
8a	res-
4dd	-plen-
8a	-dis-
=47	=47
[2.dd	-sants.
=48	=48
8dd]}	|}
8r	.
8r	.
4r	.
8r	.
=50	=50
*k[f#]	*
{16g	{Ah!
16b	|
8dd	|
8r	.
16g	Ah!
16b	|
8dd#	|
8r	.
=51	=51
16g	Ah!
16b	|
8ee	|
8r	.
16g	Ah!
16b	|
8ee#	|
8r	.
=52	=52
8ff#	chan-
8gg	|
8dd	|
8b	-tez,
8f#	|
8g	chan-
=53	=53
4b	-tez,
8a	ai-
4.a}	-mez,}
=54	=54
{4ee	{chan-
8b	|
8dd	tez,
8cc#	|
8ccn	|
=55	=55
4b	ai-
8f	|
8a	-mez,
8g#	|
8gn	|
=56	=56
8f	joy-
4b	-eux
8cc#	pin-
4ee	-son,
=57	=57
8dd#	chan-
[4ff#	-tez,
4.ff#]}	|}
=58	=58
{16g	{Ah!
16b	|
8dd	|
8r	.
16g	Ah!
16b	|
8dd#	|
8r	.
=59	=59
16g	Ah!
16b	|
8ee	|
8r	.
16g	Ah!
16b	|
8ee#	|
8r	.
=60	=60
8ff#	chan-
8gg	|
8dd	|
8b	-tez,
8f#	|
8g	chan-
=61	=61
4b	-tez,
8a	ai-
4.a}	-mez,}
=62	=62
4r	.
{8e	{Fol-
4a	-le
8a	fau-
=63	=63
4.ee	-vet-
4e}	-te,}
8r	.
=64	=64
4r	.
{8fn	{Gaie
4b-	a-
8b-	-lou-
=65	=65
4.ffn	-et-
4fn}	-te,}
8r	.
=66	=66
4r	.
{16g	{chan-
16b-	|
4.ee-	-tez,
=67	=67
4r	.
16g	chan-
16b-	|
4.ee-	-tez,
=68	=68
8r	.
8g	Ah!
8b-	|
8ee-	|
8g	|
8b-	|
=69	=69
4.ee-	|
4.ee-	|
=70	=70
8dd}	|}
8r	.
8r	.
4r	.
8r	.
=71	=71
8r	.
{8cc#	{Ah!
8dd	|
8dd#	|
8ee	|
8ee#	|
=72	=72
4.ff#	|
4.ff#	|
=73	=73
4.ff#	|
8ee	|
8r	.
8dd	Ah!
=74	=74
[4.gg	|
8gg]}	|}
8r	.
8r	.
=80	=80
*k[b-e-]	*
{16g	{Ah!
16a	|
16b-	|
16a	|
16g	|
16b-	|
8a	|
4d	|
=81	=81
16e-	chan-
16f	|
8g	tez,
8a	chan-
4.b-}	-tez,}
=82	=82
{8dd	{Souf-
8dd	-fle
8dd	qui
16cc	pas-
16a	|
4cc	-ses
=83	=83
8b-	Dans
8b-	les
8b-	es-
16a	-pa-
16f	|
4a}	-ces}
=84	=84
{8g	{Se-
4dd	-mant
8g	l'es-
4dd	-poir,
=85	=85
8g	Se-
8dd	-mant
8g	l'es-
4dd	-poir
8dd	d'un
=86	=86
16ff	jour
16een	|
8dd	|
8cc#	d'e/-
4.dd}	-te/.}
=87	=87
{16f	{Que
16g	|
16a	ton
16b-	|
16cc	ha-
16dd	|
8ee-	lei-
4e-	-ne
=88	=88
16d	Don-
16en	|
16f#	-ne a\
16g	|
16a	la
16b-	|
8a	plai-
4en	-ne
=89	=89
16d	Plus
16d	d'e/-
[4a	-clat,
4a]	|
8d	Plus
=90	=90
8d	d'e/-
8a	-clat
8d	et
8a	plus
8d	de
8a	beau-
=91	=91
[2.dd	-te/.
=92	=92
8dd]}	|}
8r	.
8r	.
4r	.
8r	.
=93	=93
{16e-	{Ah!
16f	|
16g	|
16a	|
16b-	|
16cc	|
8d	|
4d	|
=94	=94
16e-	Ah!
16f	|
16g	|
16a	|
16b-	|
16cc	|
8d	|
4d	|
=95	=95
16e-	Ah!
16f	|
16g	|
16a	|
16b-	|
16cc	|
8d	|
4d	|
=96	=96
16e-	Ah!
16f	|
16g	|
16a	|
16b-	|
16cc	|
4.dd}	|}
=97	=97
{8dd	{Ah!
[4gg	|
8gg]	|
8ee-	|
8cc	chan-
=98	=98
8.b-	-tez,
16cc	|
8a	chan-
4g}	-tez!}
8r	.
=102	=102
4r	.
8r	.
{8b-	{Dans
8dd	la
8ff	prai-
=103	=103
4.a	-ri
4.g	|
=104	=104
4.f}	-e}
{8b-	{Calme
8dd	et
8gg	fleu-
=105	=105
4.a	-ri-
4.g	|
=106	=106
4f}	-e,}
8r	.
{8f	{En-
8g	-ten-
8b-	-dez-
=107	=107
4b-	-vous
8g	ces
4b-	mots
8g	si
=108	=108
4b-}	doux.}
8r	.
4r	.
8r	.
=110	=110
4r	.
8r	.
{8b-	{L'a^-
8dd	-me
8ff	char-
=111	=111
4.a	-me/-
4.g	|
=112	=112
4.f}	-e,}
{8b-	{L'e/-
8dd	-pouse
8gg	ai-
=113	=113
4.a	-me/-
4.g	|
=114	=114
4.f#}	-e}
{8f#	{Be/-
8a	-nit
8dd	le
=115	=115
4dd	ciel
8a	pre\s
4dd	de
8a	l'e-
=116	=116
[2.dd	-poux!
=117	=117
8dd]}	|}
8r	.
8r	.
4r	.
8r	.
=119	=119
*k[f#]	*
{16g	{Ah!
16b	|
8dd	|
8r	.
16g	Ah!
16b	|
8dd#	|
8r	.
=120	=120
16g	Ah!
16b	|
8ee	|
8r	.
16g	Ah!
16b	|
8ee#	|
8r	.
=121	=121
8ff#	chan-
8gg	|
8dd	|
8b	-tez,
8f#	|
8g	chan-
=122	=122
4b	-tez,
8a	ai-
4.a}	-mez,}
=123	=123
{4ee	{Chan-
8b	|
8dd	-tez,
8cc#	|
8ccn	|
=124	=124
4b	ai-
8f#	|
8a	-mez,
8g#	|
8gn	|
=125	=125
8f#	joy-
4b	-eux
8cc#	pin-
4ee	-son,
=126	=126
8dd#	chan-
[4ff	-tez!
4.ff]}	|}
=127	=127
{16g	{Ah!
16b	|
8dd	|
8r	.
16g	Ah!
16b	|
8dd#	|
8r	.
=128	=128
16g	Ah!
16b	|
8ee	|
8r	.
16g	Ah!
16b	|
8ee#	|
8r	.
=129	=129
8ff#	Chan-
8gg	|
8dd	|
8b	-tez,
8f#	|
8g	chan-
=130	=130
4b	-tez,
8a	ai-
4.a}	-mez,}
=131	=131
4r	.
{8e	{Fol-
4a	-le
8a	fau-
=132	=132
4.ee	-vet-
4e}	-te,}
8r	.
=133	=133
4r	.
{8fn	{Gaie
4b-	a-
8b-	-lou-
=134	=134
4.ffn	-et-
4fn}	-te,}
8r	.
=135	=135
4r	.
{16g	Chan-
16b-	|
4.ee-	-tez!
=136	=136
4r	.
16g	chan
16b-	|
4.ee-	-tez!
=137	=137
8r	.
8g	Ah!
8b-	|
8ee-	|
8g	|
8b-	|
=138	=138
4.ee-	|
4.ee-	|
=139	=139
8dd}	|}
8r	.
8r	.
4r	.
8r	.
=140	=140
8r	.
{8cc#	{Ah!
8dd	|
8dd#	|
8ee	|
8ee#	|
=141	=141
4.ff#	|
4.ff#	|
=142	=142
4.ff#	|
8ee	|
8r	.
8dd	Ah!
=143	=143
[2.gg	|
=144	=144
2.gg_	|
=145	=145
8gg]}	|}
8r	.
8r	.
4r	.
8r	.
*-	*-
